X: 24
T: Bransles d'Ecosse (Scottish Bransles)
C: Arbeau
N: 
M: 2/2
L: 1/4
K: F major
"^Drone: G/D"GA BG | AB c2 | cB AG | Bc d2 |  [1 df ed | cB AG :|] \
 [2 cB AG | AF G2 :: 
K: F major
M: 2/2
d2 de | fg fe | d2 d2 |  [1 cB A2 | d2 cB | A2 G2 :|] \
 [2 cB AG | AF G2 :| 

